X: 128
T:Braes of Breadalbane
K:Am
M:C
L:1/8
E|"Am" E<A AB c>BAc|e2 cA e2 cA|"Am"E<A AB c>BAc|1c>A"E" B>^G "Am"A3:||2
 c>A "E"B>^G "A"A2 A,||!
G|"C"c<ccc "G"d<ddd|"C"e>fge "G"d<BAG|"C"c<ccc "G"d<ddd|1"C"e>d c<d "E"e
2 z:||2"E"edcB "Am"A2 A,||
% <A name="D1X129"></A>

